X:1417
T:Bien s que cortexes a una (CT 338)
C:Tradicional
S:Msica Tradicional Asturiana, (C) Tello & Tito. Asturies, 2001.
S:http://pagina.de/MusTradAst <telloytito@asturies.org>
N:Cancin de empleo indeterminado, transcrita en Avils.
O:Avils
A:Asturies
Z:Cancioneru de Torner 338
M:6/8
L:1/8
Q:3/8=88
W:Bien s que cortexes una,
W:chinchirinchn,
W:ms abaxo de mi casa;
W:tambirul, con el tambirul,
W:chinchirinchn, ol y ol,
W:ms guapa que yo seralo,
W:chinchirinchn,
W:pero no de tanta gracia.
W:tambirul, con el tambirul,
W:chinchirinchn, ol y ol,
K:C
d2 d
|: B3 c>Bc|d2 d c>Bc|d6-|d2 z c2 c|
A3 BBB|G2 G B>BB|D>DD G>GG|A3 A>Bc|d2 B c2 A|G6-|[1 G2 z d2 d:|[2 G2 ||
